T: Mother's Delight
M: 4/4
L: 1/8
K: Ddor
DE|:F2 FE F2 DE|FEFA GECE|Ddd^c defe|decd ABcA|d2 dc A3B|cbcG ECCE|Dddc A3B|AGEG FDDE:||:FAdA FDDF|EGcG ECDE|FAdA FDDF|
